X: 70
T: Money in Both Pockets
M: 6/8
Z: Transcribed to abc by Mary Lou Knack
R: jig
K: D
A \
| "D"d2F "(A)"FEF | "D"DFA AFD | "D"d2F "(A)"FEF | "D"D2f fef | "D"d2F "(A)"FEF |
| "D"DFA AFD | "Em"EFE EFA | "A7"B3 B2 :: A | "D"dfa afd | "A"cea ecA |
| "D"dfa afd | "G"g3 "(D)"fga | "G"bag "D"agf | "Em"ede "Bm"fdB | "F#m"ABA "(D)"AFA | "G"B3 "A7"B2 :|

%%sep 1 1 500

